assets/img/svg/boxicons/bxs-watch.svg

<svg xmlns="http://www.w3.org/2000/svg" width="24" height="24" viewBox="0 0 24 24"><path d="M13 8h-2v5h5v-2h-3z"/><path d="M19.999 12c0-2.953-1.612-5.53-3.999-6.916V3a1 1 0 0 0-1-1H9a1 1 0 0 0-1 1v2.083C5.613 6.469 4.001 9.047 4.001 12a8.003 8.003 0 0 0 4.136 7H8v2.041a1 1 0 0 0 1 1h6a1 1 0 0 0 1-1V19h-.139a8 8 0 0 0 4.138-7zm-8 5.999A6.005 6.005 0 0 1 6.001 12a6.005 6.005 0 0 1 5.998-5.999c3.31 0 6 2.691 6 5.999a6.005 6.005 0 0 1-6 5.999z"/></svg>

<svg xmlns="http://www.w3.org/2000/svg" width="24" height="24" viewBox="0 0 24 24"><path d="M13 8L11 8 11 13 16 13 16 11 13 11z"/><path d="M19.999,12c0-2.953-1.612-5.53-3.999-6.916V3c0-0.553-0.447-1-1-1H9C8.448,2,8,2.447,8,3v2.083 C5.613,6.469,4.001,9.047,4.001,12c0,3.011,1.673,5.635,4.136,7H8v2.041c0,0.553,0.448,1,1,1h6c0.553,0,1-0.447,1-1V19h-0.138 C18.326,17.635,19.999,15.011,19.999,12z M11.999,17.999c-3.307,0-5.998-2.691-5.998-5.999s2.691-5.999,5.998-5.999 c3.309,0,6,2.691,6,5.999S15.308,17.999,11.999,17.999z"/></svg>
